svgs/sharp-regular/building-columns.svg

<svg xmlns="http://www.w3.org/2000/svg" viewBox="0 0 512 512"><!--! Font Awesome Pro 6.6.0 by @fontawesome - https://fontawesome.com License - https://fontawesome.com/license (Commercial License) Copyright 2024 Fonticons, Inc. --><path d="M48 192L0 192l0-48L256 0 512 144l0 48-48 0L48 192zm366.1-48L256 55.1 97.9 144l130.4 0c-2.7-4.7-4.3-10.2-4.3-16c0-17.7 14.3-32 32-32s32 14.3 32 32c0 5.8-1.6 11.3-4.3 16l130.4 0zM64 224l48 0 0 160 64 0 0-160 48 0 0 160 64 0 0-160 48 0 0 160 64 0 0-160 48 0 0 160 8 0 24 0 0 48-24 0L56 432l-24 0 0-48 24 0 8 0 0-160zM24 464l464 0 24 0 0 48-24 0L24 512 0 512l0-48 24 0z"/></svg>

<svg xmlns="http://www.w3.org/2000/svg" viewBox="0 0 512 512"><!--! Font Awesome Pro 6.4.0 by @fontawesome - https://fontawesome.com License - https://fontawesome.com/license (Commercial License) Copyright 2023 Fonticons, Inc. --><path d="M48 192H0V144L256 0 512 144v48H464 48zm366.1-48L256 55.1 97.9 144H228.3c-2.7-4.7-4.3-10.2-4.3-16c0-17.7 14.3-32 32-32s32 14.3 32 32c0 5.8-1.6 11.3-4.3 16H414.1zM64 224h48V384h64V224h48V384h64V224h48V384h64V224h48V384h8 24v48H456 56 32V384H56h8V224zM24 464H488h24v48H488 24 0V464H24z"/></svg>
